svgs/sharp-light/book-arrow-right.svg

<svg xmlns="http://www.w3.org/2000/svg" viewBox="0 0 640 512"><!--! Font Awesome Pro 6.6.0 by @fontawesome - https://fontawesome.com License - https://fontawesome.com/license (Commercial License) Copyright 2024 Fonticons, Inc. --><path d="M64 0C28.7 0 0 28.7 0 64L0 448s0 0 0 0c0 35.3 28.7 64 64 64l368 0 16 0 0-32-16 0-16 0 0-64 16 0 16 0 0-16 0-128-32 0 0 112L64 384c-11.7 0-22.6 3.1-32 8.6L32 64c0-17.7 14.3-32 32-32l352 0 0 112 32 0 0-128 0-16L432 0 64 0zM384 416l0 64L64 480c-17.7 0-32-14.3-32-32s14.3-32 32-32l320 0zM531.3 100.7L520 89.4 497.4 112l11.3 11.3L577.4 192 272 192l-16 0 0 32 16 0 305.4 0-68.7 68.7L497.4 304 520 326.6l11.3-11.3 96-96L638.6 208l-11.3-11.3-96-96z"/></svg>

<svg xmlns="http://www.w3.org/2000/svg" viewBox="0 0 640 512"><!--! Font Awesome Pro 6.4.2 by @fontawesome - https://fontawesome.com License - https://fontawesome.com/license (Commercial License) Copyright 2023 Fonticons, Inc. --><path d="M64 0C28.7 0 0 28.7 0 64L0 448l0 0c0 35.3 28.7 64 64 64H432h16V480H432 416V416h16 16V400 272H416V384H64c-11.7 0-22.6 3.1-32 8.6L32 64c0-17.7 14.3-32 32-32H416V144h32V16 0H432 64zM384 416v64H64c-17.7 0-32-14.3-32-32s14.3-32 32-32H384zM531.3 100.7L520 89.4 497.4 112l11.3 11.3L577.4 192H272 256v32h16H577.4l-68.7 68.7L497.4 304 520 326.6l11.3-11.3 96-96L638.6 208l-11.3-11.3-96-96z"/></svg>
